X:1
T:Eilan, The
M:C
L:1/8
S:Stanford/Petire (1905), No. 618
Z:AK/Fiddler's Companion
K: C
f2 | f3e e3e | ffff e3f | e2c2e2d | c6 f2 |
e2g2 g3f | f2gf e2c2 | c2GA _B2 G^F | G6 ff |
e3c c2G2 | F2D2 D3C | C4 C4 | C6 ||

